X: 2150
T: the LADS OF FOSS
Q: "Reel."
R: Reel.
%R: reel
B: James Kerr "Merry Melodies" v.2 p.18 #150
Z: 2016 John Chambers <jc:trillian.mit.edu>
N: The final repeat symbol should probably be just a double bar.
M: C
L: 1/8
K: D
uA |\
FA A/A/A B2AB | dBAF GEEG |\
FA A/A/A B2Ag | fdef d/d/d d ::\
ug |\
f2(df) aeeg | f2(df) ecAg |\
f2(df) aeeg | fdef d/d/d d :|
